X:1
T:Title
%%score { ( 1 4 ) | ( 2 3 ) }
L:1/8
M:9/8
K:Ab
V:1 treble nm="Grand Piano"
V:4 treble 
V:2 bass 
V:3 bass 
V:1
 z3 z3[Q:1/4=111] [CE]3 | [Ec]3- [Ec][=D_c][E=c] [CA]2 [_DF] | [CE]3 [E,A,C]3 [CEA]3 | %3
 G3- GEF GAB |[M:3/4] [Ec]6 |[M:3/8] [CE]3 |[M:9/8] [Ec]3- [Ec][=D_c][E=c] [CA]2 [DF] | %7
 [CE]3 [CA]3 [Ec]3 | [DB]3- [DB][Ec][Fd] [Ec]2 [DB] |[M:3/4] [CA]6 |[M:12/8] z3 d6- d z z | %11
 z3 c3- c6 | z3 B3- B6 | z3 c6- c2 z | z3 d6- d2 z | z3 c3- c6 | z3 e6- e z z |[M:9/8] z3 A6- | %18
 A3 z3 z3 |] %19
V:2
 z3 z3 [A,,A,]3 | [A,,A,]3- [A,,A,][A,,A,][A,,A,] [A,,E,]2 [A,,A,] | [A,,A,]3 A,,3 A,,3 | %3
 [E,B,E]3- [E,B,E][E,G,][E,A,=D] [B,_D][A,C][E,G,E] |[M:3/4] [A,,A,]6 |[M:3/8] [A,,A,]3 | %6
[M:9/8] [A,,A,]3- [A,,A,][A,,A,][A,,A,] [A,,E,]2 [A,,A,] | [A,,A,]3 [A,,E,]3 [A,,A,]3 | %8
 [D,F,]3- [D,F,][C,=A,][B,,B,] [E,_A,]2 [E,G,] |[M:3/4] [A,,A,]6 | %10
[M:12/8] z6 [D,A,][D,A,][D,A,] [D,A,][D,A,][D,A,] | %11
 [D,A,][D,A,][D,A,] [A,,A,]3 [A,,A,][A,,A,][A,,A,] [A,,A,]3 | z6 [E,G,][E,G,][E,G,] [E,G,]3 | %13
 z6 A,A,A, .A,3 | z3 z2 [D,A,] [D,A,][D,A,][D,A,] .[D,A,]3 | z3 z2 A, A,A,A, A,3 | %16
 z6 [E,B,]3 [E,B,][E,D][E,C] |[M:9/8] [E,B,]2 E, A,,3 D,3 | A,,3 z3 z3 |] %19
V:3
 x9 | x9 | x9 | z3 z3 .E,3 |[M:3/4] x6 |[M:3/8] x3 |[M:9/8] x9 | x9 | x9 |[M:3/4] x6 | %10
[M:12/8] x12 | x12 | x12 | x12 | x12 | x12 | x12 |[M:9/8] x9 | x9 |] %19
V:4
 x9 | x9 | x9 | x9 |[M:3/4] x6 |[M:3/8] x3 |[M:9/8] x9 | x9 | x9 |[M:3/4] x6 | %10
[M:12/8] AAA z3 FFF F[Fd][Fd] | [Fd][Fc][=EB] _E3 EEE E3 | cBA z3 EEE E3 | Bed z3 EEE E2 A | %14
 AAA z2 F FFF F2 d | ded z2 E EEE E3 | e3 z3 G3 G[GB][Ac] |[M:9/8] [Gd]2 [DEG] [CE]3 [DF]3 | %18
 [CE]3 z3 z3 |] %19

